;START_OF_HEADER
;HEADER_VERSION:0.1
;FLAVOR:Griffin
;GENERATOR.NAME:Cura_SteamEngine
;GENERATOR.VERSION:5.4.0
;GENERATOR.BUILD_DATE:2023-07-05
;TARGET_MACHINE.NAME:Ultimaker S3
;EXTRUDER_TRAIN.0.INITIAL_TEMPERATURE:100
;EXTRUDER_TRAIN.0.MATERIAL.VOLUME_USED:41716
;EXTRUDER_TRAIN.0.MATERIAL.GUID:506c9f0d-e3aa-4bd4-b2d2-23e2425b1aa9
;EXTRUDER_TRAIN.0.NOZZLE.DIAMETER:0.4
;EXTRUDER_TRAIN.0.NOZZLE.NAME:AA 0.4
;EXTRUDER_TRAIN.1.INITIAL_TEMPERATURE:200
;EXTRUDER_TRAIN.1.MATERIAL.VOLUME_USED:6203
;EXTRUDER_TRAIN.1.MATERIAL.GUID:506c9f0d-e3aa-4bd4-b2d2-23e2425b1aa9
;EXTRUDER_TRAIN.1.NOZZLE.DIAMETER:0.4
;EXTRUDER_TRAIN.1.NOZZLE.NAME:AA 0.4
;BUILD_PLATE.INITIAL_TEMPERATURE:60
;PRINT.TIME:14802
;PRINT.GROUPS:1
;PRINT.SIZE.MIN.X:39.912
;PRINT.SIZE.MIN.Y:41.9
;PRINT.SIZE.MIN.Z:0.4
;PRINT.SIZE.MAX.X:180
;PRINT.SIZE.MAX.Y:180
;PRINT.SIZE.MAX.Z:61.6
;SLICE_UUID:e6cf14ce-6fb8-4b9b-a048-890493fc395b
;END_OF_HEADER
;Generated with Cura_SteamEngine 5.4.0
T1
M82 ;absolute extrusion mode

G92 E0
M109 S200
G280 S1
G0 Z20.001
G1 F2700 E-6.5
;LAYER_COUNT:151
;LAYER:0
M106 S255
M104 T0 S200
M104 S185
M204 S1500
M205 X20 Y20
G1 F600 Z2.4
G0 F9000 X180 Y180 Z2.4
G1 F1200 E-16
G1 F600 Z2.4
G92 E0
T0
G92 E0
M109 S200
M104 T1 S100
G280 S1
G0 Z2.401
G1 F2700 E-6.5
M204 S1000
G0 F9000 X180 Y180 Z2.4
G1 F600 Z0.4
;MESH:3D_Printer_test_fixed_stl_3rd_gen.STL
G0 F9000 X164.566 Y148.02
G0 X164.78 Y144.78
;TYPE:WALL-OUTER
G1 F2700 E0
G1 F1200 X164.78 Y45.22 E2.74674
G1 X65.22 Y45.22 E5.49349
G1 X65.22 Y144.78 E8.24023
G1 X164.78 Y144.78 E10.98697
G0 F9000 X164.78 Y144.58
G0 X164.38 Y144.38
;TYPE:WALL-INNER
G1 F1200 X164.38 Y45.62 E13.3401
G1 X65.62 Y45.62 E15.69322
G1 X65.62 Y144.38 E18.04635
G1 X164.38 Y144.38 E20.39947
G0 F9000 X164.06 Y144.06
;TYPE:SKIN
G1 F1200 X164.06 Y45.94 E22.50356
G1 X65.94 Y45.94 E24.60765
G1 X65.94 Y144.06 E26.71174
G1 X164.06 Y144.06 E28.81583
G1 F2700 E22.31583
G0 F9000 X164.36 Y144.06
G0 X164.36 Y46.196
G0 X163.859 Y46.196
G1 F2700 E28.81583
G1 F1200 X163.802 Y46.14 E28.81754
G0 F9000 X163.237 Y46.14
G1 F1200 X163.859 Y46.762 E28.8364
G0 F9000 X163.859 Y47.328
G1 F1200 X162.671 Y46.14 E28.87243
G0 F9000 X162.105 Y46.14
G1 F1200 X163.859 Y47.893 E28.92561
G0 F9000 X163.859 Y48.459
G1 F1200 X161.539 Y46.14 E28.99595
G0 F9000 X160.974 Y46.14
G1 F1200 X163.859 Y49.025 E29.08344
G0 F9000 X163.859 Y49.59
G1 F1200 X160.408 Y46.14 E29.18808
G0 F9000 X159.842 Y46.14
G1 F1200 X163.859 Y50.156 E29.30989
G0 F9000 X163.859 Y50.722
G1 F1200 X159.277 Y46.14 E29.44885
G0 F9000 X158.711 Y46.14
G1 F1200 X163.859 Y51.287 E29.60495
G0 F9000 X163.859 Y51.853
G1 F1200 X158.145 Y46.14 E29.77822
G0 F9000 X157.58 Y46.14
G1 F1200 X163.859 Y52.419 E29.96864
G0 F9000 X163.859 Y52.984
G1 F1200 X157.014 Y46.14 E30.17621
G0 F9000 X156.448 Y46.14
G1 F1200 X163.859 Y53.55 E30.40094
G0 F9000 X163.859 Y54.116
G1 F1200 X155.883 Y46.14 E30.64283
G0 F9000 X155.317 Y46.14
G1 F1200 X163.859 Y54.681 E30.90186
G0 F9000 X163.859 Y55.247
G1 F1200 X154.751 Y46.14 E31.17806
G0 F9000 X154.186 Y46.14
G1 F1200 X163.859 Y55.813 E31.47141
G0 F9000 X163.859 Y56.379
G1 F1200 X153.62 Y46.14 E31.78192
G0 F9000 X153.054 Y46.14
G1 F1200 X163.859 Y56.944 E32.10958
G0 F9000 X163.859 Y57.51
G1 F1200 X152.488 Y46.14 E32.45441
G0 F9000 X151.923 Y46.14
G1 F1200 X163.859 Y58.076 E32.81638
G0 F9000 X163.859 Y58.641
G1 F1200 X151.357 Y46.14 E33.19551
G0 F9000 X150.791 Y46.14
G1 F1200 X163.859 Y59.207 E33.5918
G0 F9000 X163.859 Y59.773
G1 F1200 X150.226 Y46.14 E34.00524
G0 F9000 X149.66 Y46.14
G1 F1200 X163.859 Y60.338 E34.43583
G0 F9000 X163.859 Y60.904
G1 F1200 X149.094 Y46.14 E34.88359
G0 F9000 X148.529 Y46.14
G1 F1200 X163.859 Y61.47 E35.34849
G0 F9000 X163.859 Y62.035
G1 F1200 X147.963 Y46.14 E35.83055
G0 F9000 X147.397 Y46.14
G1 F1200 X163.859 Y62.601 E36.32976
G0 F9000 X163.859 Y63.167
G1 F1200 X146.832 Y46.14 E36.84613
G0 F9000 X146.266 Y46.14
G1 F1200 X163.859 Y63.732 E37.37965
G0 F9000 X163.859 Y64.298
G1 F1200 X145.7 Y46.14 E37.93033
G0 F9000 X145.135 Y46.14
G1 F1200 X163.859 Y64.864 E38.49817
G0 F9000 X163.859 Y65.43
G1 F1200 X144.569 Y46.14 E39.08316
G0 F9000 X144.003 Y46.14
G1 F1200 X163.859 Y65.995 E39.68531
G0 F9000 X163.859 Y66.561
G1 F1200 X143.438 Y46.14 E40.30461
G0 F9000 X142.872 Y46.14
G1 F1200 X163.859 Y67.127 E40.94107
G0 F9000 X163.859 Y67.692
G1 F1200 X142.306 Y46.14 E41.59468
G0 F9000 X141.74 Y46.14
G1 F1200 X163.859 Y68.258 E42.26545
G0 F9000 X163.859 Y68.824
G1 F1200 X141.175 Y46.14 E42.95338
G0 F9000 X140.609 Y46.14
G1 F1200 X163.859 Y69.389 E43.65845
G0 F9000 X163.859 Y69.955
G1 F1200 X140.043 Y46.14 E44.38069
G0 F9000 X139.478 Y46.14
G1 F1200 X163.859 Y70.521 E45.12008
G0 F9000 X163.859 Y71.086
G1 F1200 X138.912 Y46.14 E45.87662
G0 F9000 X138.346 Y46.14
G1 F1200 X163.859 Y71.652 E46.65032
G0 F9000 X163.859 Y72.218
G1 F1200 X137.781 Y46.14 E47.44118
G0 F9000 X137.215 Y46.14
G1 F1200 X163.859 Y72.783 E48.24918
G0 F9000 X163.859 Y73.349
G1 F1200 X136.649 Y46.14 E49.07435
G0 F9000 X136.084 Y46.14
G1 F1200 X163.859 Y73.915 E49.91666
G0 F9000 X163.859 Y74.48
G1 F1200 X135.518 Y46.14 E50.77613
G0 F9000 X134.952 Y46.14
G1 F1200 X163.859 Y75.046 E51.65276
G0 F9000 X163.859 Y75.612
G1 F1200 X134.387 Y46.14 E52.54654
G0 F9000 X133.821 Y46.14
G1 F1200 X163.859 Y76.178 E53.45749
G0 F9000 X163.859 Y76.743
G1 F1200 X133.255 Y46.14 E54.38558
G0 F9000 X132.69 Y46.14
G1 F1200 X163.859 Y77.309 E55.33083
G0 F9000 X163.859 Y77.875
G1 F1200 X132.124 Y46.14 E56.29324
G0 F9000 X131.558 Y46.14
G1 F1200 X163.859 Y78.44 E57.2728
G0 F9000 X163.859 Y79.006
G1 F1200 X130.992 Y46.14 E58.26952
G0 F9000 X130.427 Y46.14
G1 F1200 X163.859 Y79.572 E59.28339
G0 F9000 X163.859 Y80.137
G1 F1200 X129.861 Y46.14 E60.31442
G0 F9000 X129.295 Y46.14
G1 F1200 X163.859 Y80.703 E61.36261
G0 F9000 X163.859 Y81.269
G1 F1200 X128.73 Y46.14 E62.42794
G0 F9000 X128.164 Y46.14
G1 F1200 X163.859 Y81.834 E63.51043
G0 F9000 X163.859 Y82.4
G1 F1200 X127.598 Y46.14 E64.61008
G0 F9000 X127.033 Y46.14
G1 F1200 X163.859 Y82.966 E65.72688
G0 F9000 X163.859 Y83.531
G1 F1200 X126.467 Y46.14 E66.86084
G0 F9000 X125.901 Y46.14
G1 F1200 X163.859 Y84.097 E68.01195
G0 F9000 X163.859 Y84.663
G1 F1200 X125.336 Y46.14 E69.18022
G0 F9000 X124.77 Y46.14
G1 F1200 X163.859 Y85.228 E70.36563
G0 F9000 X163.859 Y85.794
G1 F1200 X124.204 Y46.14 E71.56821
G0 F9000 X123.639 Y46.14
G1 F1200 X163.859 Y86.36 E72.78794
G0 F9000 X163.859 Y86.926
G1 F1200 X123.073 Y46.14 E74.02484
G0 F9000 X122.507 Y46.14
G1 F1200 X163.859 Y87.491 E75.27888
G0 F9000 X163.859 Y88.057
G1 F1200 X121.941 Y46.14 E76.55009
G0 F9000 X121.376 Y46.14
G1 F1200 X163.859 Y88.623 E77.83845
G0 F9000 X163.859 Y89.188
G1 F1200 X120.81 Y46.14 E79.14396
G0 F9000 X120.244 Y46.14
G1 F1200 X163.859 Y89.754 E80.46663
G0 F9000 X163.859 Y90.32
G1 F1200 X119.679 Y46.14 E81.80645
G0 F9000 X119.113 Y46.14
G1 F1200 X163.859 Y90.885 E83.16342
G0 F9000 X163.859 Y91.451
G1 F1200 X118.547 Y46.14 E84.53756
G0 F9000 X117.982 Y46.14
G1 F1200 X163.859 Y92.017 E85.92885
G0 F9000 X163.859 Y92.582
G1 F1200 X117.416 Y46.14 E87.33728
G0 F9000 X116.85 Y46.14
G1 F1200 X163.859 Y93.148 E88.76288
G0 F9000 X163.859 Y93.714
G1 F1200 X116.285 Y46.14 E90.20563
G0 F9000 X115.719 Y46.14
G1 F1200 X163.859 Y94.279 E91.66553
G0 F9000 X163.859 Y94.845
G1 F1200 X115.153 Y46.14 E93.1426
G0 F9000 X114.588 Y46.14
G1 F1200 X163.859 Y95.411 E94.63681
G0 F9000 X163.859 Y95.977
G1 F1200 X114.022 Y46.14 E96.14819
G0 F9000 X113.456 Y46.14
G1 F1200 X163.859 Y96.542 E97.67672
G0 F9000 X163.859 Y97.108
G1 F1200 X112.891 Y46.14 E99.2224
G0 F9000 X112.325 Y46.14
G1 F1200 X163.859 Y97.674 E100.78524
G0 F9000 X163.859 Y98.239
G1 F1200 X111.759 Y46.14 E102.36523
G0 F9000 X111.193 Y46.14
G1 F1200 X163.859 Y98.805 E103.96239
G0 F9000 X163.859 Y99.371
G1 F1200 X110.628 Y46.14 E105.5767
G0 F9000 X110.062 Y46.14
G1 F1200 X163.859 Y99.936 E107.20815
G0 F9000 X163.859 Y100.502
G1 F1200 X109.496 Y46.14 E108.85677
G0 F9000 X108.931 Y46.14
G1 F1200 X163.859 Y101.068 E110.52255
G0 F9000 X163.859 Y101.633
G1 F1200 X108.365 Y46.14 E112.20547
G0 F9000 X107.799 Y46.14
G1 F1200 X163.859 Y102.199 E113.90555
G0 F9000 X163.859 Y102.765
G1 F1200 X107.234 Y46.14 E115.62279
G0 F9000 X106.668 Y46.14
G1 F1200 X163.859 Y103.33 E117.35717
G0 F9000 X163.859 Y103.896
G1 F1200 X106.102 Y46.14 E119.10872
G0 F9000 X105.537 Y46.14
G1 F1200 X163.859 Y104.462 E120.87742
G0 F9000 X163.859 Y105.027
G1 F1200 X104.971 Y46.14 E122.66327
G0 F9000 X104.405 Y46.14
G1 F1200 X163.859 Y105.593 E124.46628
G0 F9000 X163.859 Y106.159
G1 F1200 X103.84 Y46.14 E126.28644
G0 F9000 X103.274 Y46.14
G1 F1200 X163.859 Y106.725 E128.12377
G0 F9000 X163.859 Y107.29
G1 F1200 X102.708 Y46.14 E129.97825
G0 F9000 X102.142 Y46.14
G1 F1200 X163.859 Y107.856 E131.84989
G0 F9000 X163.859 Y108.422
G1 F1200 X101.577 Y46.14 E133.73868
G0 F9000 X101.011 Y46.14
G1 F1200 X163.859 Y108.987 E135.64462
G0 F9000 X163.859 Y109.553
G1 F1200 X100.445 Y46.14 E137.56773
G0 F9000 X99.88 Y46.14
G1 F1200 X163.859 Y110.119 E139.50799
G0 F9000 X163.859 Y110.684
G1 F1200 X99.314 Y46.14 E141.46539
G0 F9000 X98.748 Y46.14
G1 F1200 X163.859 Y111.25 E143.43996
G0 F9000 X163.859 Y111.816
G1 F1200 X98.183 Y46.14 E145.43168
G0 F9000 X97.617 Y46.14
G1 F1200 X163.859 Y112.381 E147.44055
G0 F9000 X163.859 Y112.947
G1 F1200 X97.051 Y46.14 E149.46658
G0 F9000 X96.486 Y46.14
G1 F1200 X163.859 Y113.513 E151.50977
G0 F9000 X163.859 Y114.078
G1 F1200 X95.92 Y46.14 E153.5701
G0 F9000 X95.354 Y46.14
G1 F1200 X163.859 Y114.644 E155.6476
G0 F9000 X163.859 Y115.21
G1 F1200 X94.789 Y46.14 E157.74224
G0 F9000 X94.223 Y46.14
G1 F1200 X163.859 Y115.776 E159.85406
G0 F9000 X163.859 Y116.341
G1 F1200 X93.657 Y46.14 E161.98302
G0 F9000 X93.092 Y46.14
G1 F1200 X163.859 Y116.907 E164.12913
G0 F9000 X163.859 Y117.473
G1 F1200 X92.526 Y46.14 E166.29241
G0 F9000 X91.96 Y46.14
G1 F1200 X163.859 Y118.038 E168.47283
G0 F9000 X163.859 Y118.604
G1 F1200 X91.394 Y46.14 E170.67042
G0 F9000 X90.829 Y46.14
G1 F1200 X163.859 Y119.17 E172.88516
G0 F9000 X163.859 Y119.735
G1 F1200 X90.263 Y46.14 E175.11705
G0 F9000 X89.697 Y46.14
G1 F1200 X163.859 Y120.301 E177.36611
G0 F9000 X163.859 Y120.867
G1 F1200 X89.132 Y46.14 E179.63231
G0 F9000 X88.566 Y46.14
G1 F1200 X163.859 Y121.432 E181.91567
G0 F9000 X163.859 Y121.998
G1 F1200 X88 Y46.14 E184.21618
G0 F9000 X87.435 Y46.14
G1 F1200 X163.859 Y122.564 E186.53385
G0 F9000 X163.859 Y123.129
G1 F1200 X86.869 Y46.14 E188.86867
G0 F9000 X86.303 Y46.14
G1 F1200 X163.859 Y123.695 E191.22065
G0 F9000 X163.859 Y124.261
G1 F1200 X85.738 Y46.14 E193.58979
G0 F9000 X85.172 Y46.14
G1 F1200 X163.859 Y124.826 E195.97607
G0 F9000 X163.859 Y125.392
G1 F1200 X84.606 Y46.14 E198.37951
G0 F9000 X84.041 Y46.14
G1 F1200 X163.859 Y125.958 E200.80011
G0 F9000 X163.859 Y126.524
G1 F1200 X83.475 Y46.14 E203.23787
G0 F9000 X82.909 Y46.14
G1 F1200 X163.859 Y127.089 E205.69278
G0 F9000 X163.859 Y127.655
G1 F1200 X82.343 Y46.14 E208.16486
G0 F9000 X81.778 Y46.14
G1 F1200 X163.859 Y128.221 E210.65408
G0 F9000 X163.859 Y128.786
G1 F1200 X81.212 Y46.14 E213.16046
G0 F9000 X80.646 Y46.14
G1 F1200 X163.859 Y129.352 E215.684
G0 F9000 X163.859 Y129.918
G1 F1200 X80.081 Y46.14 E218.22468
G0 F9000 X79.515 Y46.14
G1 F1200 X163.859 Y130.483 E220.78252
G0 F9000 X163.859 Y131.049
G1 F1200 X78.949 Y46.14 E223.35753
G0 F9000 X78.384 Y46.14
G1 F1200 X163.859 Y131.615 E225.94968
G0 F9000 X163.859 Y132.18
G1 F1200 X77.818 Y46.14 E228.55898
G0 F9000 X77.252 Y46.14
G1 F1200 X163.859 Y132.746 E231.18545
G0 F9000 X163.859 Y133.312
G1 F1200 X76.687 Y46.14 E233.82906
G0 F9000 X76.121 Y46.14
G1 F1200 X163.859 Y133.877 E236.48983
G0 F9000 X163.859 Y134.443
G1 F1200 X75.555 Y46.14 E239.16776
G0 F9000 X74.99 Y46.14
G1 F1200 X163.859 Y135.009 E241.86284
G0 F9000 X163.859 Y135.574
G1 F1200 X74.424 Y46.14 E244.57507
G0 F9000 X73.858 Y46.14
G1 F1200 X163.859 Y136.14 E247.30447
G0 F9000 X163.859 Y136.706
G1 F1200 X73.293 Y46.14 E250.05101
G0 F9000 X72.727 Y46.14
G1 F1200 X163.859 Y137.272 E252.81472
G0 F9000 X163.859 Y137.837
G1 F1200 X72.161 Y46.14 E255.59558
G0 F9000 X71.595 Y46.14
G1 F1200 X163.859 Y138.403 E258.39361
G0 F9000 X163.859 Y138.969
G1 F1200 X71.03 Y46.14 E261.20878
G0 F9000 X70.464 Y46.14
G1 F1200 X163.859 Y139.534 E264.0411
G0 F9000 X163.859 Y140.1
G1 F1200 X69.898 Y46.14 E266.89059
G0 F9000 X69.333 Y46.14
G1 F1200 X163.859 Y140.666 E269.75723
G0 F9000 X163.859 Y141.231
G1 F1200 X68.767 Y46.14 E272.64102
G0 F9000 X68.201 Y46.14
G1 F1200 X163.859 Y141.797 E275.54197
G0 F9000 X163.859 Y142.363
G1 F1200 X67.636 Y46.14 E278.46007
G0 F9000 X67.07 Y46.14
G1 F1200 X163.859 Y142.928 E281.39532
G0 F9000 X163.859 Y143.494
G1 F1200 X66.504 Y46.14 E284.34774
G0 F9000 X66.139 Y46.34
G1 F1200 X163.658 Y143.859 E287.30514
G0 F9000 X163.092 Y143.859
G1 F1200 X66.139 Y46.905 E290.24539
G0 F9000 X66.139 Y47.471
G1 F1200 X162.527 Y143.859 E293.1685
G0 F9000 X161.961 Y143.859
G1 F1200 X66.139 Y48.037 E296.07444
G0 F9000 X66.139 Y48.602
G1 F1200 X161.395 Y143.859 E298.96323
G0 F9000 X160.83 Y143.859
G1 F1200 X66.139 Y49.168 E301.83487
G0 F9000 X66.139 Y49.734
G1 F1200 X160.264 Y143.859 E304.68935
G0 F9000 X159.698 Y143.859
G1 F1200 X66.139 Y50.3 E307.52666
G0 F9000 X66.139 Y50.865
G1 F1200 X159.132 Y143.859 E310.34682
G0 F9000 X158.567 Y143.859
G1 F1200 X66.139 Y51.431 E313.14984
G0 F9000 X66.139 Y51.997
G1 F1200 X158.001 Y143.859 E315.93568
G0 F9000 X157.435 Y143.859
G1 F1200 X66.139 Y52.562 E318.70438
G0 F9000 X66.139 Y53.128
G1 F1200 X156.87 Y143.859 E321.45593
G0 F9000 X156.304 Y143.859
G1 F1200 X66.139 Y53.694 E324.19031
G0 F9000 X66.139 Y54.259
G1 F1200 X155.738 Y143.859 E326.90755
G0 F9000 X155.173 Y143.859
G1 F1200 X66.139 Y54.825 E329.60763
G0 F9000 X66.139 Y55.391
G1 F1200 X154.607 Y143.859 E332.29055
G0 F9000 X154.041 Y143.859
G1 F1200 X66.139 Y55.956 E334.95632
G0 F9000 X66.139 Y56.522
G1 F1200 X153.476 Y143.859 E337.60494
G0 F9000 X152.91 Y143.859
G1 F1200 X66.139 Y57.088 E340.2364
G0 F9000 X66.139 Y57.653
G1 F1200 X152.344 Y143.859 E342.85071
G0 F9000 X151.779 Y143.859
G1 F1200 X66.139 Y58.219 E345.44786
G0 F9000 X66.139 Y58.785
G1 F1200 X151.213 Y143.859 E348.02786
G0 F9000 X150.647 Y143.859
G1 F1200 X66.139 Y59.351 E350.59068
G0 F9000 X66.139 Y59.916
G1 F1200 X150.082 Y143.859 E353.13637
G0 F9000 X149.516 Y143.859
G1 F1200 X66.139 Y60.482 E355.6649
G0 F9000 X66.139 Y61.048
G1 F1200 X148.95 Y143.859 E358.17627
G0 F9000 X148.384 Y143.859
G1 F1200 X66.139 Y61.613 E360.67048
G0 F9000 X66.139 Y62.179
G1 F1200 X147.819 Y143.859 E363.14754
G0 F9000 X147.253 Y143.859
G1 F1200 X66.139 Y62.745 E365.60744
G0 F9000 X66.139 Y63.31
G1 F1200 X146.687 Y143.859 E368.05019
G0 F9000 X146.122 Y143.859
G1 F1200 X66.139 Y63.876 E370.47579
G0 F9000 X66.139 Y64.442
G1 F1200 X145.556 Y143.859 E372.88423
G0 F9000 X144.99 Y143.859
G1 F1200 X66.139 Y65.007 E375.27551
G0 F9000 X66.139 Y65.573
G1 F1200 X144.425 Y143.859 E377.64965
G0 F9000 X143.859 Y143.859
G1 F1200 X66.139 Y66.139 E380.00662
G0 F9000 X66.139 Y66.704
G1 F1200 X143.293 Y143.859 E382.34644
G0 F9000 X142.728 Y143.859
G1 F1200 X66.139 Y67.27 E384.66911
G0 F9000 X66.139 Y67.836
G1 F1200 X142.162 Y143.859 E386.97462
G0 F9000 X141.596 Y143.859
G1 F1200 X66.139 Y68.401 E389.26298
G0 F9000 X66.139 Y68.967
G1 F1200 X141.031 Y143.859 E391.53419
G0 F9000 X140.465 Y143.859
G1 F1200 X66.139 Y69.533 E393.78823
G0 F9000 X66.139 Y70.099
G1 F1200 X139.899 Y143.859 E396.02511
G0 F9000 X139.333 Y143.859
G1 F1200 X66.139 Y70.664 E398.24484
G0 F9000 X66.139 Y71.23
G1 F1200 X138.768 Y143.859 E400.44742
G0 F9000 X138.202 Y143.859
G1 F1200 X66.139 Y71.796 E402.63283
G0 F9000 X66.139 Y72.361
G1 F1200 X137.636 Y143.859 E404.8011
G0 F9000 X137.071 Y143.859
G1 F1200 X66.139 Y72.927 E406.95221
G0 F9000 X66.139 Y73.493
G1 F1200 X136.505 Y143.859 E409.08616
G0 F9000 X135.939 Y143.859
G1 F1200 X66.139 Y74.058 E411.20296
G0 F9000 X66.139 Y74.624
G1 F1200 X135.374 Y143.859 E413.30262
G0 F9000 X134.808 Y143.859
G1 F1200 X66.139 Y75.19 E415.3851
G0 F9000 X66.139 Y75.755
G1 F1200 X134.242 Y143.859 E417.45044
G0 F9000 X133.677 Y143.859
G1 F1200 X66.139 Y76.321 E419.49863
G0 F9000 X66.139 Y76.887
G1 F1200 X133.111 Y143.859 E421.52965
