;START_OF_HEADER
;HEADER_VERSION:0.1
;FLAVOR:Griffin
;GENERATOR.NAME:Cura_SteamEngine
;GENERATOR.VERSION:5.4.0
;GENERATOR.BUILD_DATE:2023-07-05
;TARGET_MACHINE.NAME:Ultimaker S3
;EXTRUDER_TRAIN.0.INITIAL_TEMPERATURE:100
;EXTRUDER_TRAIN.0.MATERIAL.VOLUME_USED:10229
;EXTRUDER_TRAIN.0.MATERIAL.GUID:506c9f0d-e3aa-4bd4-b2d2-23e2425b1aa9
;EXTRUDER_TRAIN.0.NOZZLE.DIAMETER:0.4
;EXTRUDER_TRAIN.0.NOZZLE.NAME:AA 0.4
;EXTRUDER_TRAIN.1.INITIAL_TEMPERATURE:200
;EXTRUDER_TRAIN.1.MATERIAL.VOLUME_USED:2039
;EXTRUDER_TRAIN.1.MATERIAL.GUID:506c9f0d-e3aa-4bd4-b2d2-23e2425b1aa9
;EXTRUDER_TRAIN.1.NOZZLE.DIAMETER:0.4
;EXTRUDER_TRAIN.1.NOZZLE.NAME:AA 0.4
;BUILD_PLATE.INITIAL_TEMPERATURE:60
;PRINT.TIME:4365
;PRINT.GROUPS:1
;PRINT.SIZE.MIN.X:51.462
;PRINT.SIZE.MIN.Y:61.356
;PRINT.SIZE.MIN.Z:0.4
;PRINT.SIZE.MAX.X:180
;PRINT.SIZE.MAX.Y:180
;PRINT.SIZE.MAX.Z:60.8
;SLICE_UUID:8e9d6780-e863-491b-a2d7-6d60ed179c10
;END_OF_HEADER
;Generated with Cura_SteamEngine 5.4.0
T1
M82 ;absolute extrusion mode

G92 E0
M109 S200
G280 S1
G0 Z20.001
G1 F2700 E-6.5
;LAYER_COUNT:152
;LAYER:0
M106 S255
M104 T0 S200
M204 S1000
M205 X20 Y20
G1 F600 Z2.4
G0 F9000 X122.901 Y118.676 Z2.4
;TYPE:SUPPORT
G1 F600 Z0.4
G1 F2700 E0
G1 F1200 X124.831 Y116.747 E0.06844
G1 X125.578 Y114.074 E0.13805
G1 X124.824 Y111.486 E0.20566
G1 X122.858 Y109.408 E0.2774
G1 X120.191 Y108.661 E0.34687
G1 X117.524 Y109.408 E0.41633
G1 X115.558 Y111.486 E0.48808
G1 X114.81 Y114.049 E0.55504
G1 X115.552 Y116.592 E0.62148
G1 X117.647 Y118.687 E0.69579
G1 X120.202 Y119.432 E0.76254
G1 X122.901 Y118.676 E0.83284
G1 F2700 E-5.66716
G0 F9000 X90.82 Y125.398
G1 F2700 E0.83284
G1 F1200 X90.502 Y124.306 E0.86136
G1 X89.648 Y123.402 E0.89256
G1 X88.525 Y123.088 E0.9218
G1 X87.402 Y123.402 E0.95105
G1 X86.548 Y124.306 E0.98224
G1 X86.232 Y125.387 E1.01048
G1 X86.542 Y126.448 E1.03821
G1 X87.464 Y127.37 E1.07091
G1 X88.535 Y127.683 E1.0989
G1 X89.665 Y127.366 E1.12833
G1 X90.504 Y126.527 E1.15809
G1 X90.82 Y125.398 E1.18749
G1 F2700 E-5.31251
G0 F9000 X64.502 Y113.402
G1 F2700 E1.18749
G1 F1200 X65.325 Y110.459 E1.26414
G1 X64.499 Y107.63 E1.33805
G1 X62.079 Y105.063 E1.42654
G1 X59.096 Y104.174 E1.5046
G1 X56.179 Y104.956 E1.58035
G1 X54.059 Y107.224 E1.65821
G1 X53.279 Y110.075 E1.73235
G1 X54.214 Y113.162 E1.81324
G1 X56.603 Y115.55 E1.89796
G1 X59.414 Y116.37 E1.9714
G1 X62.357 Y115.547 E2.04805
G1 X64.502 Y113.402 E2.12413
G1 F2700 E-4.37587
G0 F9000 X64.683 Y93.384
G0 X64.976 Y90.729
G0 X65.521 Y88.101
G0 X66.306 Y85.558
G0 X67.331 Y83.087
G0 X68.574 Y80.735
G0 X70.047 Y78.498
G0 X71.716 Y76.416
G0 X73.575 Y74.497
G0 X75.611 Y72.762
G0 X77.791 Y71.23
G0 X80.121 Y69.905
G0 X82.555 Y68.806
G0 X88.564 Y66.765
G1 F2700 E2.12413
G1 F1200 X89.635 Y67.078 E2.15211
G1 X90.765 Y66.761 E2.18155
G1 X91.604 Y65.922 E2.21131
G1 X91.92 Y64.793 E2.24071
G1 X91.602 Y63.701 E2.26924
G1 X90.748 Y62.797 E2.30043
G1 X89.625 Y62.483 E2.32967
G1 X88.502 Y62.797 E2.35892
G1 X87.648 Y63.701 E2.39011
G1 X87.332 Y64.782 E2.41836
G1 X87.642 Y65.843 E2.44608
G1 X88.564 Y66.765 E2.47878
M104 S185
M204 S1500
G1 F2700 E-4.02122
G0 F9000 X94.775 Y66.874
G0 X97.439 Y67.165
G0 X100.054 Y67.709
G0 X102.607 Y68.49
G0 X105.079 Y69.512
G0 X107.437 Y70.761
G0 X109.672 Y72.226
G0 X111.753 Y73.892
G0 X113.678 Y75.752
G0 X115.41 Y77.781
G0 X116.657 Y79.553
G0 X180 Y180
G1 F1200 E-13.52122
G1 F600 Z2.4
G92 E0
T0
G92 E0
M109 S200
M104 T1 S100
G280 S1
G0 Z0.401
G1 F2700 E-6.5
M204 S1000
G0 F9000 X180 Y180 Z2.4
G1 F600 Z0.4
;MESH:giantowl.stl
G0 F9000 X117.672 Y123.37
G0 X114.999 Y120.256
;TYPE:WALL-OUTER
G1 F2700 E0
G1 F1200 X115.784 Y120.245 E0.02166
G1 X116.571 Y120.208 E0.0434
G1 X117.394 Y120.142 E0.06617
G1 X118.144 Y120.057 E0.087
G1 X118.878 Y119.954 E0.10745
G1 X119.67 Y119.82 E0.12961
G1 X120.48 Y119.653 E0.15242
G1 X121.194 Y119.481 E0.17269
G1 X122.009 Y119.258 E0.196
G1 X122.783 Y119.024 E0.21831
G1 X123.451 Y118.793 E0.23781
G1 X124.247 Y118.496 E0.26125
G1 X125.008 Y118.183 E0.28395
G1 X125.671 Y117.884 E0.30401
G1 X126.409 Y117.521 E0.3267
G1 X127.108 Y117.152 E0.34851
G1 X127.847 Y116.73 E0.37199
G1 X128.511 Y116.326 E0.39343
G1 X129.126 Y115.915 E0.41384
G1 X129.772 Y115.46 E0.43564
G1 X130.4 Y114.991 E0.45726
G1 X131.02 Y114.494 E0.47918
G1 X131.616 Y113.987 E0.50077
G1 X132.223 Y113.435 E0.52341
G1 X132.768 Y112.908 E0.54432
G1 X133.323 Y112.34 E0.56623
G1 X133.852 Y111.754 E0.58801
G1 X134.359 Y111.159 E0.60958
G1 X134.858 Y110.539 E0.63154
G1 X135.333 Y109.911 E0.65326
G1 X135.782 Y109.264 E0.67499
G1 X136.221 Y108.603 E0.69688
G1 X136.631 Y107.933 E0.71855
G1 X137.023 Y107.247 E0.74035
G1 X137.388 Y106.551 E0.76203
G1 X137.737 Y105.84 E0.78388
G1 X138.065 Y105.122 E0.80566
G1 X138.365 Y104.396 E0.82733
G1 X138.644 Y103.659 E0.84907
G1 X138.898 Y102.909 E0.87092
G1 X139.131 Y102.157 E0.89264
G1 X139.354 Y101.343 E0.91592
G1 X139.524 Y100.63 E0.93614
G1 X139.681 Y99.86 E0.95783
G1 X139.832 Y99.03 E0.9811
G1 X139.931 Y98.301 E1.0014
G1 X140.015 Y97.554 E1.02214
G1 X140.078 Y96.732 E1.04488
G1 X140.118 Y95.942 E1.0667
G1 X140.129 Y95.153 E1.08847
G1 X140.118 Y94.366 E1.11019
G1 X140.078 Y93.579 E1.13193
G1 X140.014 Y92.743 E1.15506
G1 X139.931 Y92.012 E1.17536
G1 X139.828 Y91.282 E1.1957
G1 X139.684 Y90.454 E1.21888
G1 X139.523 Y89.679 E1.24072
G1 X139.35 Y88.968 E1.26091
G1 X139.13 Y88.153 E1.2842
G1 X138.888 Y87.368 E1.30686
G1 X138.663 Y86.714 E1.32594
G1 X138.363 Y85.914 E1.34951
G1 X138.056 Y85.172 E1.37167
G1 X137.75 Y84.497 E1.39211
G1 X137.388 Y83.76 E1.41477
G1 X137.021 Y83.065 E1.43645
G1 X136.627 Y82.377 E1.45832
G1 X136.189 Y81.659 E1.48153
G1 X135.779 Y81.045 E1.5019
G1 X135.329 Y80.4 E1.52359
G1 X134.854 Y79.771 E1.54534
G1 X134.357 Y79.154 E1.5672
G1 X133.85 Y78.559 E1.58876
G1 X133.318 Y77.971 E1.61064
G1 X132.766 Y77.406 E1.63243
G1 X132.2 Y76.855 E1.65423
G1 X131.614 Y76.326 E1.67601
G1 X131.018 Y75.82 E1.69758
G1 X130.398 Y75.322 E1.71952
G1 X129.767 Y74.847 E1.7413
G1 X129.124 Y74.399 E1.76293
G1 X128.508 Y73.993 E1.78328
G1 X127.789 Y73.551 E1.80656
G1 X127.104 Y73.16 E1.82832
G1 X126.409 Y72.794 E1.85
G1 X125.671 Y72.431 E1.87269
G1 X125.008 Y72.132 E1.89275
G1 X124.247 Y71.82 E1.91544
G1 X123.513 Y71.541 E1.93711
G1 X122.763 Y71.286 E1.95896
G1 X122.006 Y71.052 E1.98082
G1 X121.194 Y70.83 E2.00404
G1 X120.48 Y70.661 E2.02429
G1 X119.669 Y70.495 E2.04713
G1 X118.877 Y70.355 E2.06931
G1 X118.145 Y70.254 E2.0897
G1 X117.398 Y70.17 E2.11044
G1 X116.574 Y70.107 E2.13324
G1 X115.784 Y70.067 E2.15506
G1 X114.999 Y70.056 E2.17672
G1 X114.211 Y70.067 E2.19846
G1 X113.421 Y70.107 E2.22029
G1 X112.597 Y70.17 E2.24309
G1 X111.851 Y70.254 E2.2638
G1 X111.117 Y70.358 E2.28425
G1 X110.293 Y70.5 E2.30732
G1 X109.515 Y70.661 E2.32924
G1 X108.801 Y70.834 E2.34951
G1 X107.99 Y71.052 E2.37267
G1 X107.233 Y71.287 E2.39454
G1 X106.481 Y71.541 E2.41644
G1 X105.748 Y71.819 E2.43807
G1 X104.998 Y72.128 E2.46045
G1 X104.322 Y72.434 E2.48092
G1 X103.59 Y72.794 E2.50343
G1 X102.89 Y73.16 E2.52522
G1 X102.202 Y73.553 E2.54708
G1 X101.481 Y73.992 E2.57037
G1 X100.872 Y74.401 E2.5906
G1 X100.227 Y74.852 E2.61232
G1 X99.595 Y75.325 E2.6341
G1 X98.975 Y75.822 E2.65602
G1 X98.379 Y76.328 E2.67759
G1 X97.79 Y76.86 E2.69949
G1 X97.225 Y77.41 E2.72124
G1 X96.676 Y77.975 E2.74297
G1 X96.144 Y78.561 E2.76481
G1 X95.636 Y79.156 E2.78639
G1 X95.138 Y79.776 E2.80833
G1 X94.666 Y80.405 E2.83003
G1 X94.212 Y81.05 E2.85179
G1 X93.806 Y81.664 E2.8721
G1 X93.363 Y82.383 E2.8954
G1 X92.997 Y83.028 E2.91586
G1 X92.605 Y83.764 E2.93886
G1 X92.262 Y84.47 E2.96052
G1 X91.933 Y85.188 E2.98231
G1 X91.631 Y85.919 E3.00413
G1 X91.331 Y86.717 E3.02765
G1 X91.103 Y87.381 E3.04702
G1 X90.868 Y88.157 E3.06939
G1 X90.641 Y88.973 E3.09275
G1 X90.471 Y89.686 E3.11298
G1 X90.306 Y90.491 E3.13565
G1 X90.167 Y91.285 E3.15789
G1 X90.068 Y92.013 E3.17816
G1 X89.983 Y92.764 E3.19901
G1 X89.917 Y93.587 E3.22179
G1 X89.881 Y94.371 E3.24344
G1 X89.87 Y95.159 E3.26518
G1 X89.881 Y95.943 E3.28681
G1 X89.917 Y96.729 E3.30852
G1 X89.981 Y97.525 E3.33055
G1 X90.068 Y98.3 E3.35207
G1 X90.17 Y99.031 E3.37243
G1 X90.306 Y99.824 E3.39463
G1 X90.471 Y100.63 E3.41732
G1 X90.644 Y101.341 E3.43751
G1 X90.868 Y102.158 E3.46088
G1 X91.1 Y102.922 E3.48291
G1 X91.334 Y103.598 E3.50265
G1 X91.631 Y104.396 E3.52614
G1 X91.906 Y105.062 E3.54602
G1 X92.26 Y105.84 E3.5696
G1 X92.605 Y106.548 E3.59133
G1 X92.976 Y107.248 E3.61319
G1 X93.363 Y107.932 E3.63487
G1 X93.776 Y108.603 E3.6566
G1 X94.212 Y109.261 E3.67838
G1 X94.666 Y109.911 E3.70026
G1 X95.137 Y110.539 E3.72191
G1 X95.636 Y111.159 E3.74387
G1 X96.143 Y111.753 E3.76542
G1 X96.709 Y112.375 E3.78862
G1 X97.224 Y112.906 E3.80902
G1 X97.79 Y113.454 E3.83076
G1 X98.379 Y113.987 E3.85268
G1 X98.975 Y114.494 E3.87426
G1 X99.595 Y114.991 E3.89619
G1 X100.223 Y115.459 E3.91779
G1 X100.873 Y115.915 E3.9397
G1 X101.487 Y116.323 E3.96004
G1 X102.149 Y116.73 E3.98148
G1 X102.887 Y117.152 E4.00493
G1 X103.587 Y117.52 E4.02675
G1 X104.299 Y117.866 E4.04859
G1 X105.013 Y118.193 E4.07025
G1 X105.748 Y118.496 E4.09219
G1 X106.449 Y118.76 E4.11285
G1 X107.206 Y119.018 E4.13492
G1 X107.987 Y119.258 E4.15746
G1 X108.801 Y119.484 E4.18077
G1 X109.515 Y119.653 E4.20101
G1 X110.326 Y119.82 E4.22385
G1 X111.116 Y119.957 E4.24597
G1 X111.85 Y120.057 E4.26641
G1 X112.601 Y120.142 E4.28726
G1 X113.424 Y120.208 E4.31004
G1 X114.211 Y120.245 E4.33178
G1 X114.999 Y120.256 E4.35352
G0 F9000 X115.199 Y120.254
G0 X114.999 Y119.856
;TYPE:WALL-INNER
G1 F1200 X115.772 Y119.845 E4.37194
G1 X116.546 Y119.809 E4.3904
G1 X117.356 Y119.744 E4.40976
G1 X118.094 Y119.66 E4.42746
G1 X118.817 Y119.559 E4.44485
G1 X119.596 Y119.427 E4.46368
G1 X120.393 Y119.263 E4.48307
G1 X121.094 Y119.093 E4.50025
G1 X121.899 Y118.874 E4.52013
G1 X122.66 Y118.644 E4.53907
G1 X123.316 Y118.417 E4.55561
G1 X124.101 Y118.124 E4.57558
G1 X124.85 Y117.816 E4.59487
G1 X125.501 Y117.522 E4.61189
G1 X126.227 Y117.165 E4.63117
G1 X126.916 Y116.802 E4.64973
G1 X127.644 Y116.386 E4.6697
G1 X128.296 Y115.989 E4.68789
G1 X128.9 Y115.585 E4.70521
G1 X129.537 Y115.136 E4.72377
G1 X130.155 Y114.675 E4.74215
G1 X130.765 Y114.186 E4.76077
G1 X131.352 Y113.687 E4.77913
G1 X131.949 Y113.143 E4.79837
G1 X132.486 Y112.624 E4.81617
G1 X133.031 Y112.066 E4.83475
G1 X133.552 Y111.49 E4.85326
G1 X134.051 Y110.904 E4.8716
G1 X134.542 Y110.293 E4.89027
G1 X135.009 Y109.676 E4.90871
G1 X135.451 Y109.039 E4.92718
G1 X135.884 Y108.388 E4.94581
G1 X136.287 Y107.729 E4.96422
G1 X136.672 Y107.055 E4.98271
G1 X137.031 Y106.37 E5.00114
G1 X137.375 Y105.669 E5.01975
G1 X137.698 Y104.962 E5.03827
G1 X137.993 Y104.249 E5.05665
G1 X138.268 Y103.524 E5.07513
G1 X138.518 Y102.785 E5.09371
G1 X138.747 Y102.045 E5.11217
G1 X138.966 Y101.244 E5.13196
G1 X139.134 Y100.544 E5.14911
G1 X139.288 Y99.784 E5.16759
G1 X139.437 Y98.967 E5.18737
G1 X139.534 Y98.251 E5.20459
G1 X139.617 Y97.516 E5.22221
G1 X139.679 Y96.707 E5.24154
G1 X139.718 Y95.929 E5.26011
G1 X139.729 Y95.153 E5.2786
G1 X139.718 Y94.379 E5.29704
G1 X139.679 Y93.604 E5.31553
G1 X139.616 Y92.781 E5.3352
G1 X139.534 Y92.062 E5.35244
G1 X139.433 Y91.344 E5.36971
G1 X139.291 Y90.529 E5.38943
G1 X139.133 Y89.767 E5.40797
G1 X138.962 Y89.068 E5.42511
G1 X138.746 Y88.264 E5.44495
G1 X138.508 Y87.492 E5.4642
G1 X138.287 Y86.85 E5.48038
G1 X137.991 Y86.061 E5.50045
G1 X137.689 Y85.331 E5.51928
G1 X137.388 Y84.668 E5.53663
G1 X137.032 Y83.942 E5.55589
G1 X136.671 Y83.258 E5.57432
G1 X136.283 Y82.581 E5.59291
G1 X135.852 Y81.874 E5.61264
G1 X135.449 Y81.271 E5.62992
G1 X135.005 Y80.635 E5.6484
G1 X134.538 Y80.017 E5.66686
G1 X134.049 Y79.409 E5.68545
G1 X133.55 Y78.823 E5.70379
G1 X133.026 Y78.245 E5.72238
G1 X132.484 Y77.689 E5.74088
G1 X131.926 Y77.147 E5.75941
G1 X131.35 Y76.627 E5.7779
G1 X130.763 Y76.128 E5.79626
G1 X130.152 Y75.638 E5.81492
G1 X129.532 Y75.171 E5.83342
G1 X128.9 Y74.73 E5.85178
G1 X128.293 Y74.331 E5.86909
G1 X127.585 Y73.895 E5.8889
G1 X126.912 Y73.511 E5.90736
G1 X126.227 Y73.15 E5.92581
G1 X125.501 Y72.793 E5.94508
G1 X124.85 Y72.5 E5.96209
G1 X124.1 Y72.192 E5.98141
G1 X123.377 Y71.917 E5.99984
G1 X122.639 Y71.666 E6.01842
G1 X121.894 Y71.436 E6.03699
G1 X121.095 Y71.218 E6.05673
G1 X120.394 Y71.051 E6.0739
G1 X119.594 Y70.888 E6.09335
G1 X118.815 Y70.75 E6.1122
G1 X118.095 Y70.651 E6.12952
G1 X117.36 Y70.568 E6.14714
G1 X116.549 Y70.506 E6.16652
G1 X115.771 Y70.467 E6.18508
G1 X114.999 Y70.456 E6.20348
G1 X114.224 Y70.467 E6.22194
G1 X113.446 Y70.506 E6.24051
G1 X112.635 Y70.568 E6.25989
G1 X111.901 Y70.651 E6.27749
G1 X111.179 Y70.753 E6.29486
G1 X110.367 Y70.893 E6.31449
G1 X109.603 Y71.051 E6.33308
G1 X108.9 Y71.222 E6.35032
G1 X108.101 Y71.436 E6.37003
G1 X107.357 Y71.667 E6.38859
G1 X106.616 Y71.917 E6.40722
G1 X105.895 Y72.191 E6.4256
G1 X105.157 Y72.495 E6.44462
G1 X104.493 Y72.796 E6.46199
G1 X103.771 Y73.151 E6.48116
G1 X103.082 Y73.511 E6.49968
G1 X102.405 Y73.897 E6.51825
G1 X101.697 Y74.329 E6.53801
G1 X101.098 Y74.731 E6.5552
G1 X100.461 Y75.176 E6.57371
G1 X99.84 Y75.641 E6.5922
G1 X99.23 Y76.13 E6.61083
G1 X98.643 Y76.629 E6.62918
G1 X98.064 Y77.152 E6.64777
G1 X97.508 Y77.693 E6.66626
G1 X96.968 Y78.249 E6.68473
G1 X96.444 Y78.825 E6.70328
G1 X95.944 Y79.411 E6.72163
G1 X95.454 Y80.021 E6.74028
G1 X94.99 Y80.64 E6.75871
G1 X94.542 Y81.276 E6.77724
G1 X94.143 Y81.879 E6.79447
G1 X93.707 Y82.587 E6.81428
G1 X93.347 Y83.221 E6.83166
G1 X92.961 Y83.946 E6.85123
G1 X92.624 Y84.641 E6.86963
G1 X92.3 Y85.348 E6.88816
G1 X92.003 Y86.066 E6.90667
G1 X91.707 Y86.852 E6.92668
G1 X91.484 Y87.504 E6.9431
G1 X91.252 Y88.269 E6.96215
G1 X91.029 Y89.073 E6.98203
G1 X90.861 Y89.772 E6.99916
G1 X90.699 Y90.565 E7.01844
G1 X90.563 Y91.347 E7.03736
G1 X90.465 Y92.063 E7.05458
G1 X90.381 Y92.802 E7.0723
G1 X90.316 Y93.612 E7.09166
G1 X90.281 Y94.383 E7.11005
G1 X90.27 Y95.159 E7.12854
G1 X90.281 Y95.931 E7.14693
G1 X90.316 Y96.704 E7.16537
G1 X90.379 Y97.487 E7.18409
G1 X90.465 Y98.25 E7.20238
G1 X90.565 Y98.969 E7.21968
G1 X90.699 Y99.75 E7.23856
G1 X90.861 Y100.542 E7.25782
G1 X91.031 Y101.241 E7.27496
G1 X91.252 Y102.047 E7.29488
G1 X91.48 Y102.798 E7.31358
G1 X91.71 Y103.463 E7.33034
G1 X92.003 Y104.25 E7.35035
G1 X92.273 Y104.902 E7.36716
G1 X92.622 Y105.67 E7.38726
G1 X92.962 Y106.367 E7.40574
G1 X93.327 Y107.056 E7.42432
G1 X93.707 Y107.728 E7.44271
G1 X94.113 Y108.387 E7.46116
G1 X94.543 Y109.036 E7.47971
G1 X94.99 Y109.676 E7.49831
G1 X95.453 Y110.293 E7.51669
G1 X95.944 Y110.904 E7.53536
G1 X96.443 Y111.488 E7.55367
G1 X97.001 Y112.101 E7.57342
G1 X97.507 Y112.623 E7.59074
G1 X98.064 Y113.162 E7.60921
G1 X98.643 Y113.687 E7.62783
G1 X99.23 Y114.186 E7.64619
G1 X99.84 Y114.675 E7.66481
G1 X100.457 Y115.135 E7.68315
G1 X101.099 Y115.585 E7.70183
G1 X101.703 Y115.986 E7.7191
G1 X102.353 Y116.386 E7.73729
G1 X103.079 Y116.801 E7.75721
G1 X103.767 Y117.163 E7.77574
G1 X104.47 Y117.504 E7.79435
G1 X105.173 Y117.826 E7.81278
G1 X105.895 Y118.124 E7.83139
G1 X106.584 Y118.384 E7.84894
G1 X107.33 Y118.638 E7.86771
G1 X108.099 Y118.874 E7.88688
G1 X108.901 Y119.096 E7.90671
G1 X109.601 Y119.263 E7.92385
G1 X110.4 Y119.427 E7.94329
G1 X111.177 Y119.561 E7.96207
G1 X111.9 Y119.66 E7.97946
G1 X112.639 Y119.744 E7.99718
G1 X113.449 Y119.809 E8.01654
G1 X114.223 Y119.845 E8.03501
G1 X114.999 Y119.856 E8.0535
G0 F9000 X114.998 Y119.535
;TYPE:SKIN
G1 F1200 X115.76 Y119.525 E8.06984
G1 X116.523 Y119.489 E8.08622
G1 X117.324 Y119.425 E8.10345
G1 X118.052 Y119.341 E8.11917
G1 X118.716 Y119.248 E8.13354
G1 X119.536 Y119.112 E8.15137
G1 X120.32 Y118.95 E8.16853
G1 X120.958 Y118.796 E8.18261
G1 X121.809 Y118.566 E8.20151
G1 X122.591 Y118.33 E8.21903
G1 X123.147 Y118.135 E8.23166
G1 X123.983 Y117.825 E8.25078
G1 X124.724 Y117.52 E8.26797
G1 X125.363 Y117.231 E8.28301
G1 X126.08 Y116.879 E8.30013
G1 X126.762 Y116.519 E8.31667
G1 X127.483 Y116.109 E8.33446
G1 X128.121 Y115.72 E8.35048
G1 X128.717 Y115.321 E8.36586
G1 X129.35 Y114.876 E8.38245
G1 X129.96 Y114.42 E8.39879
G1 X130.562 Y113.938 E8.41532
G1 X131.142 Y113.446 E8.43163
G1 X131.732 Y112.909 E8.44874
G1 X132.26 Y112.397 E8.46451
G1 X132.799 Y111.847 E8.48103
G1 X133.312 Y111.278 E8.49746
